images/Omega.svg

<svg width="78" height="23" viewBox="0 0 78 23" fill="none" xmlns="http://www.w3.org/2000/svg">
<path d="M4.8 9.48C4.8 5.928 7.344 4.32 9.72 4.32C12.072 4.32 14.616 5.928 14.616 9.48C14.616 13.032 12.072 14.616 9.72 14.616C7.344 14.616 4.8 13.032 4.8 9.48ZM0.864 9.504C0.864 14.88 4.92 18.36 9.72 18.36C14.496 18.36 18.552 14.88 18.552 9.504C18.552 4.104 14.496 0.623999 9.72 0.623999C4.92 0.623999 0.864 4.104 0.864 9.504ZM23.9119 18V11.136C23.9119 10.056 24.6079 9.072 25.8799 9.072C27.1999 9.072 27.7999 9.96 27.7999 11.088V18H31.3999V11.112C31.3999 10.056 32.0959 9.072 33.3919 9.072C34.6879 9.072 35.2879 9.96 35.2879 11.088V18H38.8159V10.272C38.8159 7.032 36.6559 5.712 34.3999 5.712C32.7919 5.712 31.6399 6.24 30.7039 7.584C30.1039 6.408 28.8799 5.712 27.1759 5.712C25.8799 5.712 24.3439 6.384 23.7439 7.44V6.072H20.2639V18H23.9119ZM43.9064 10.608C43.9784 9.72 44.7464 8.592 46.2824 8.592C48.0104 8.592 48.6344 9.696 48.6824 10.608H43.9064ZM48.9464 13.704C48.6104 14.64 47.8664 15.264 46.5464 15.264C45.1304 15.264 43.9064 14.304 43.8344 12.96H52.1384C52.1624 12.888 52.2104 12.336 52.2104 11.832C52.2104 7.992 49.9304 5.712 46.2344 5.712C43.1384 5.712 40.2824 8.16 40.2824 12C40.2824 16.008 43.2104 18.36 46.4984 18.36C49.5224 18.36 51.4184 16.632 51.9944 14.568L48.9464 13.704ZM52.9624 18.672C53.2984 20.808 55.4824 22.92 58.9144 22.92C63.3784 22.92 65.2984 19.944 65.2984 16.512V6.072H61.8184V7.344C61.4824 6.72 60.4504 5.856 58.5064 5.856C55.2424 5.856 52.9624 8.544 52.9624 11.688C52.9624 15 55.3384 17.496 58.5064 17.496C60.2344 17.496 61.2664 16.8 61.6984 16.152V16.704C61.6984 18.864 60.5704 19.752 58.7464 19.752C57.3784 19.752 56.4184 18.912 56.1784 17.76L52.9624 18.672ZM59.1784 14.328C57.7144 14.328 56.6104 13.32 56.6104 11.688C56.6104 10.056 57.8104 9.048 59.1784 9.048C60.5464 9.048 61.7224 10.056 61.7224 11.688C61.7224 13.32 60.6664 14.328 59.1784 14.328ZM66.793 14.712C66.793 16.608 68.305 18.336 70.921 18.336C72.505 18.336 73.657 17.664 74.281 16.656C74.281 17.472 74.377 17.904 74.401 18H77.689C77.665 17.88 77.545 17.088 77.545 16.152V10.32C77.545 7.872 76.129 5.712 72.265 5.712C68.761 5.712 67.177 7.968 67.033 9.672L70.201 10.32C70.273 9.432 70.969 8.568 72.241 8.568C73.393 8.568 73.993 9.168 73.993 9.864C73.993 10.272 73.777 10.584 73.129 10.68L70.321 11.112C68.353 11.4 66.793 12.6 66.793 14.712ZM71.809 15.696C70.801 15.696 70.393 15.096 70.393 14.472C70.393 13.632 70.969 13.272 71.737 13.152L73.993 12.792V13.32C73.993 15.168 72.889 15.696 71.809 15.696Z" fill="white"/>
</svg>

<svg width="78" height="23" fill="none" xmlns="http://www.w3.org/2000/svg"><path d="M4.8 9.48c0-3.552 2.544-5.16 4.92-5.16 2.352 0 4.896 1.608 4.896 5.16s-2.544 5.136-4.896 5.136c-2.376 0-4.92-1.584-4.92-5.136zm-3.936.024c0 5.376 4.056 8.856 8.856 8.856 4.776 0 8.832-3.48 8.832-8.856 0-5.4-4.056-8.88-8.832-8.88-4.8 0-8.856 3.48-8.856 8.88zM23.912 18v-6.864c0-1.08.696-2.064 1.968-2.064 1.32 0 1.92.888 1.92 2.016V18h3.6v-6.888c0-1.056.696-2.04 1.992-2.04s1.896.888 1.896 2.016V18h3.528v-7.728c0-3.24-2.16-4.56-4.416-4.56-1.608 0-2.76.528-3.696 1.872-.6-1.176-1.824-1.872-3.528-1.872-1.296 0-2.832.672-3.432 1.728V6.072h-3.48V18h3.648zm19.994-7.392c.072-.888.84-2.016 2.376-2.016 1.728 0 2.352 1.104 2.4 2.016h-4.776zm5.04 3.096c-.336.936-1.08 1.56-2.4 1.56-1.416 0-2.64-.96-2.712-2.304h8.304c.024-.072.072-.624.072-1.128 0-3.84-2.28-6.12-5.976-6.12-3.096 0-5.952 2.448-5.952 6.288 0 4.008 2.928 6.36 6.216 6.36 3.024 0 4.92-1.728 5.496-3.792l-3.048-.864zm4.016 4.968c.336 2.136 2.52 4.248 5.952 4.248 4.464 0 6.384-2.976 6.384-6.408V6.072h-3.48v1.272c-.336-.624-1.368-1.488-3.312-1.488-3.264 0-5.544 2.688-5.544 5.832 0 3.312 2.376 5.808 5.544 5.808 1.728 0 2.76-.696 3.192-1.344v.552c0 2.16-1.128 3.048-2.952 3.048-1.368 0-2.328-.84-2.568-1.992l-3.216.912zm6.216-4.344c-1.464 0-2.568-1.008-2.568-2.64 0-1.632 1.2-2.64 2.568-2.64s2.544 1.008 2.544 2.64c0 1.632-1.056 2.64-2.544 2.64zm7.615.384c0 1.896 1.512 3.624 4.128 3.624 1.584 0 2.736-.672 3.36-1.68 0 .816.096 1.248.12 1.344h3.288c-.024-.12-.144-.912-.144-1.848V10.32c0-2.448-1.416-4.608-5.28-4.608-3.504 0-5.088 2.256-5.232 3.96l3.168.648c.072-.888.768-1.752 2.04-1.752 1.152 0 1.752.6 1.752 1.296 0 .408-.216.72-.864.816l-2.808.432c-1.968.288-3.528 1.488-3.528 3.6zm5.016.984c-1.008 0-1.416-.6-1.416-1.224 0-.84.576-1.2 1.344-1.32l2.256-.36v.528c0 1.848-1.104 2.376-2.184 2.376z" fill="#fff"/></svg>
